X: 1
T: High Up on Tug
O: source: Edded Hammons, WV
R: C|
Z: 2020 John Chambers <jc:trillian.mit.edu>
S: https://www.facebook.com/groups/Fiddletuneoftheday/ 2020-10-26
S: https://www.facebook.com/groups/Fiddletuneoftheday/photos/
M: C|
L: 1/8
K: G
"^A"[|\
g2ga b2ba | gbag e2d2 | eg2a gedf | edBG AG[G2G,2] |
g2ga b2ba | gbag egd2 | eg2g- gbag | edBG AG[G2G,2] ||
"^B"|::\
AB-Bc BAGB | AGEG DEGA | Be-ef gede | dBAG AGG2 ::|
P: Alterative B part: (Edded Hammons played this on some repeats):
[| AB-Bc BAGB |[M:6/4] AGEG DEGA DEGA |[M:C|] Be-ef gede | dBAG AGG2 |]
